packages/icons/src/svg/eye-slash.svg

<svg xmlns="http://www.w3.org/2000/svg" viewBox="0 0 16 16">
	<g>
		<path d="M14.9952 0C14.7392 0 14.4832.098 14.2882.293L.3112 14.27C-.0788 14.66-.0788 15.293.3112 15.684.5072 15.879.7632 15.977 1.0182 15.977 1.2742 15.977 1.5302 15.879 1.7252 15.684L15.7022 1.707C16.0932 1.316 16.0932.684 15.7022.293 15.5072.098 15.2512 0 14.9952 0M12.0001 7.9053C11.8841 10.0763 10.1691 11.8223 8.0001 11.9763 7.6651 11.9543 7.3461 11.8823 7.0351 11.7883L5.3271 13.4963C6.1751 13.8173 7.0751 13.9913 8.0001 13.9763 11.5661 14.0333 14.7771 11.3263 16.0001 7.9763 15.5711 6.8003 14.8921 5.7063 14.0431 4.7803L11.8171 7.0063C11.9051 7.2953 11.9741 7.5933 12.0001 7.9053M4.001 8.0469C4.082 5.8609 5.815 4.0959 8 3.9759 8.346 3.9989 8.675 4.0749 8.993 4.1739L10.7 2.4659C9.844 2.1399 8.935 1.9609 8 1.9759 4.435 1.9189 1.224 4.6259 0 7.9759.433 9.1609 1.118 10.2619 1.976 11.1919L4.193 8.9739C4.1 8.6759 4.027 8.3689 4.001 8.0469"/>
	</g>
</svg>

<svg xmlns="http://www.w3.org/2000/svg" viewBox="0 0 16 16">
	<path d="M14.995 0a.997.997 0 0 0-.707.293L.311 14.27a1 1 0 0 0 1.414 1.414L15.702 1.707A.999.999 0 0 0 14.995 0M12 7.905a4.312 4.312 0 0 1-4 4.071 4.295 4.295 0 0 1-.965-.188l-1.708 1.708a7.204 7.204 0 0 0 2.673.48c3.566.057 6.777-2.65 8-6a9.67 9.67 0 0 0-1.957-3.196l-2.226 2.226c.088.29.157.587.183.9m-7.999.14A4.234 4.234 0 0 1 8 3.977c.346.023.675.099.993.198L10.7 2.466a7.245 7.245 0 0 0-2.7-.49c-3.565-.057-6.776 2.65-8 6a9.675 9.675 0 0 0 1.976 3.216l2.217-2.218a4.252 4.252 0 0 1-.192-.927"/>
</svg>
